svg/weather/sun_fill.svg

<?xml version="1.0" encoding="UTF-8"?>
<svg width="24px" height="24px" viewBox="0 0 24 24" version="1.1" xmlns="http://www.w3.org/2000/svg" xmlns:xlink="http://www.w3.org/1999/xlink">
    <title>sun_fill</title>
    <g id="页面-1" stroke="none" stroke-width="1" fill="none" fill-rule="evenodd">
        <g id="Weather" transform="translate(-145.000000, -48.000000)" fill-rule="nonzero">
            <g id="sun_fill" transform="translate(145.000000, 48.000000)">
                 <path d="M24,0 L24,24 L0,24 L0,0 L24,0 Z M12.5934901,23.257841 L12.5819402,23.2595131 L12.5108777,23.2950439 L12.4918791,23.2987469 L12.4918791,23.2987469 L12.4767152,23.2950439 L12.4056548,23.2595131 C12.3958229,23.2563662 12.3870493,23.2590235 12.3821421,23.2649074 L12.3780323,23.275831 L12.360941,23.7031097 L12.3658947,23.7234994 L12.3769048,23.7357139 L12.4804777,23.8096931 L12.4953491,23.8136134 L12.4953491,23.8136134 L12.5071152,23.8096931 L12.6106902,23.7357139 L12.6232938,23.7196733 L12.6232938,23.7196733 L12.6266527,23.7031097 L12.609561,23.275831 C12.6075724,23.2657013 12.6010112,23.2592993 12.5934901,23.257841 L12.5934901,23.257841 Z M12.8583906,23.1452862 L12.8445485,23.1473072 L12.6598443,23.2396597 L12.6498822,23.2499052 L12.6498822,23.2499052 L12.6471943,23.2611114 L12.6650943,23.6906389 L12.6699349,23.7034178 L12.6699349,23.7034178 L12.678386,23.7104931 L12.8793402,23.8032389 C12.8914285,23.8068999 12.9022333,23.8029875 12.9078286,23.7952264 L12.9118235,23.7811639 L12.8776777,23.1665331 C12.8752882,23.1545897 12.8674102,23.1470016 12.8583906,23.1452862 L12.8583906,23.1452862 Z M12.1430473,23.1473072 C12.1332178,23.1423925 12.1221763,23.1452606 12.1156365,23.1525954 L12.1099173,23.1665331 L12.0757714,23.7811639 C12.0751323,23.7926639 12.0828099,23.8018602 12.0926481,23.8045676 L12.108256,23.8032389 L12.3092106,23.7104931 L12.3186497,23.7024347 L12.3186497,23.7024347 L12.3225043,23.6906389 L12.340401,23.2611114 L12.337245,23.2485176 L12.337245,23.2485176 L12.3277531,23.2396597 L12.1430473,23.1473072 Z" id="MingCute" fill-rule="nonzero"></path>
                <path d="M12,19 C12.5523,19 13,19.4477 13,20 L13,21 C13,21.5523 12.5523,22 12,22 C11.4477,22 11,21.5523 11,21 L11,20 C11,19.4477 11.4477,19 12,19 Z M18.364,16.9498 L19.0711,17.6569 C19.4616,18.0474 19.4616,18.6805 19.0711,19.0711 C18.6806,19.4616 18.0474,19.4616 17.6569,19.0711 L16.9498,18.364 C16.5593,17.9734 16.5593,17.3403 16.9498,16.9498 C17.3403,16.5592 17.9735,16.5592 18.364,16.9498 Z M5.6359825,16.9498 C6.02651,16.5592 6.65968,16.5592 7.0502,16.9498 C7.41068,17.3102615 7.43840923,17.8775207 7.13338769,18.2697973 L7.0502,18.364 L6.34309,19.0711 C5.95257,19.4616 5.3194,19.4616 4.92888,19.0711 C4.56839077,18.7106385 4.54066083,18.1433793 4.84569018,17.7511027 L4.92888,17.6569 L5.6359825,16.9498 Z M12,6 C15.3137,6 18,8.68629 18,12 C18,15.3137 15.3137,18 12,18 C8.68629,18 6,15.3137 6,12 C6,8.68629 8.68629,6 12,6 Z M4,11 C4.55228,11 5,11.4477 5,12 C5,12.51285 4.61395571,12.9355092 4.11662025,12.9932725 L4,13 L3,13 C2.44772,13 2,12.5523 2,12 C2,11.48715 2.38604429,11.0644908 2.88337975,11.0067275 L3,11 L4,11 Z M21,11 C21.5523,11 22,11.4477 22,12 C22,12.5523 21.5523,13 21,13 L20,13 C19.4477,13 19,12.5523 19,12 C19,11.4477 19.4477,11 20,11 L21,11 Z M4.92891,4.92888 C5.28939,4.5684 5.85662503,4.54067077 6.2489135,4.84569231 L6.34312,4.92888 L7.05023,5.63599 C7.44075,6.02651 7.44075,6.65968 7.05023,7.0502 C6.68974077,7.41068 6.12251355,7.43840923 5.73022044,7.13338769 L5.6360125,7.0502 L4.92891,6.34309 C4.53838,5.95257 4.53838,5.3194 4.92891,4.92888 Z M19.0711,4.9289 C19.4616,5.31942 19.4616,5.95259 19.0711,6.34311 L18.364,7.05022 C17.9734,7.44074 17.3403,7.44074 16.9498,7.05022 C16.5592,6.65969 16.5592,6.02653 16.9498,5.6360025 L17.6569,4.9289 C18.0474,4.53837 18.6805,4.53837 19.0711,4.9289 Z M12,2 C12.5523,2 13,2.44772 13,3 L13,4 C13,4.55228 12.5523,5 12,5 C11.4477,5 11,4.55228 11,4 L11,3 C11,2.44772 11.4477,2 12,2 Z" id="形状" fill="#09244B"></path>
            </g>
        </g>
    </g>
</svg>

<svg xmlns="http://www.w3.org/2000/svg" width="24" height="24"><g fill="none" fill-rule="nonzero"><path d="M24 0v24H0V0h24ZM12.593 23.258l-.011.002-.071.035-.02.004-.014-.004-.071-.035c-.01-.004-.019-.001-.024.005l-.004.01-.017.428.005.02.01.013.104.074.015.004.012-.004.104-.074.012-.016.004-.017-.017-.427c-.002-.01-.009-.017-.017-.018Zm.265-.113-.013.002-.185.093-.01.01-.003.011.018.43.005.012.008.007.201.093c.012.004.023 0 .029-.008l.004-.014-.034-.614c-.003-.012-.01-.02-.02-.022Zm-.715.002a.023.023 0 0 0-.027.006l-.006.014-.034.614c0 .012.007.02.017.024l.015-.002.201-.093.01-.008.004-.011.017-.43-.003-.012-.01-.01-.184-.092Z"/><path fill="#09244B" d="M12 19a1 1 0 0 1 1 1v1a1 1 0 1 1-2 0v-1a1 1 0 0 1 1-1Zm6.364-2.05.707.707a1 1 0 0 1-1.414 1.414l-.707-.707a1 1 0 0 1 1.414-1.414Zm-12.728 0a1 1 0 0 1 1.497 1.32l-.083.094-.707.707a1 1 0 0 1-1.497-1.32l.083-.094.707-.707ZM12 6a6 6 0 1 1 0 12 6 6 0 0 1 0-12Zm-8 5a1 1 0 0 1 .117 1.993L4 13H3a1 1 0 0 1-.117-1.993L3 11h1Zm17 0a1 1 0 1 1 0 2h-1a1 1 0 1 1 0-2h1ZM4.929 4.929a1 1 0 0 1 1.32-.083l.094.083.707.707a1 1 0 0 1-1.32 1.497l-.094-.083-.707-.707a1 1 0 0 1 0-1.414Zm14.142 0a1 1 0 0 1 0 1.414l-.707.707a1 1 0 1 1-1.414-1.414l.707-.707a1 1 0 0 1 1.414 0ZM12 2a1 1 0 0 1 1 1v1a1 1 0 1 1-2 0V3a1 1 0 0 1 1-1Z"/></g></svg>
